X: 1
T: THREE MERRY SISTERS -- REEL
B: Ryan's Mammoth Collection of Fiddle Tunes
R: reel
M: C|
L: 1/8
Z: Contributed 20010523163018 by John Chambers jc:trillian.mit.edu
K: EDorian
"^Segno"|:\
v.B.E((3FED) BdcA | .B.E((3FED) dAFA | .B.E((3FED) BdcA | (dD)(3DDD ADFA :|
|: Beec d2cA | Beec dAFA | Beec d2cA | BABc dAFA :|
|: BdcA BFAF | .B.E(3EEE BEFA | BdcA BFAF | (dD)(3DDD ADFA |
|  BdcA BFAF | .B.E(3EEE BEFA | DFAc d2eg | fdec dAFA "^Segno"[|]:|

